!!!!SEGMENT: Any1001a_Missa_Vulnerasti_cor_meum-Kyrie.krn
!!!id: Any1001a
!!!OTL: Kyrie
!!!AGN: Mass; Kyrie
!!!voices: 4
!!!COM: Anonymous
!!!OTL: Any1001a_Missa_Vulnerasti_cor_meum-Kyrie
**kern	**kern	**kern	**kern
*part4	*part3	*part2	*part1
*staff4	*staff3	*staff2	*staff1
*I"Bassus	*I"Tenor	*I"Altus	*I"Superius
*I'B	*I'T	*I'A	*I'S
*clefF4	*clefGv2	*clefGv2	*clefG2
*k[b-]	*k[b-]	*k[b-]	*k[b-]
*F:	*F:	*F:	*F:
*M3/1	*M3/1	*M3/1	*M3/1
*met(O)	*met(O)	*met(O)	*met(O)
!!section: Kyrie I
!!!OMD: Kyrie I
=1	=1	=1	=1
1.d	0.r	0.r	0.r
4c	.	.	.
4B-y	.	.	.
2c	.	.	.
2d	.	.	.
=2	=2	=2	=2
2G	0.r	1.g	0.r
1B-y	.	.	.
4A	.	4f	.
4G	.	4e	.
2A	.	2f	.
2G	.	2g	.
=3	=3	=3	=3
2.B-y	0.r	2d	1.dd
.	.	1f	.
4c	.	.	.
1d	.	.	.
.	.	4e	4cc
.	.	4d	4b-y
1r	.	2e	2cc
.	.	2d	2dd
=4	=4	=4	=4
1G	1.g	2.B-y	2g
.	.	.	1b-y
.	.	4c	.
1G	.	0d	.
.	4f	.	4a
.	4e	.	4g
2D	2f	.	2a
2G	2g	.	2g
=5	=5	=5	=5
2.A	2d	2r	2.f
.	1f	2.d	.
4c	.	.	4e
2d	.	.	2d
.	.	4e	.
2B-y	4e	4f	1dd
.	4d	4g	.
1A	1e	1a	.
.	.	.	2cc#i
=6	=6	=6	=6
2D	0d	2b-y	0dd
2.d	.	2.a	.
4G	.	4g	.
2B-y	.	1g	.
1A	1r	.	1cc
.	.	2f#i	.
=7	=7	=7	=7
1.G	[0.d	1g	1.b-y
.	.	2r	.
4F	.	2.d	4a
4E	.	.	4g
[1D	.	.	1f
.	.	4e	.
.	.	4f	.
.	.	4g	.
=8	=8	=8	=8
0D]	0d]	1a	2r
.	.	.	2ff
.	.	2r	2.ff
.	.	2a	.
.	.	.	4ee
1r	2B-y	2b-y	2dd
.	2c	[2a	2cc
=9	=9	=9	=9
0r	2d	4a]	2b-y
.	.	4g	.
.	2e	1g	2g
.	1d	.	1a
.	.	2f#i	.
1G	1r	1g	2g
.	.	.	[2dd
=10	=10	=10	=10
1.G	0.d	0g	4dd]
.	.	.	4cc
.	.	.	1b-y
2A	.	.	4a
.	.	.	4g
1B-y	.	1r	1f
=11	=11	=11	=11
1.G	0g	1.b-y	2r
.	.	.	2b-y
.	.	.	2dd
4F	.	4a	2ee
4E	.	4g	.
2.D	[1f	1a	2.ff
4E	.	.	4ee
=12	=12	=12	=12
4F	2f]	2.a	2dd
4G	.	.	.
2A	2e	.	2.cc
.	.	4g	.
2B-y	2d	2f	.
.	.	.	4b-y
2G	4c	2e	1b-y
.	4B-y	.	.
1F	1c	1f	.
.	.	.	2a
=13	=13	=13	=13
2.G	0.B-y	2d	0.b-y
.	.	1g	.
4A	.	.	.
4B-y	.	.	.
4c	.	.	.
2d	.	2f	.
2G	.	2g	.
[2d	.	2f	.
=14	=14	=14	=14
2d]	0.r	1b-y	0.r
4c	.	.	.
4B-y	.	.	.
2c	.	2a	.
2d	.	2.b-y	.
1G	.	.	.
.	.	4a	.
.	.	[2g	.
=15	=15	=15	=15
1r	0d	2g]	2r
.	.	2f#i	2a
2.G	.	1g	2b-y
.	.	.	2.dd
4A	.	.	.
3B-y	1d	2r	.
.	.	.	4cc
3A	.	.	.
.	.	2g	2b-y
3G	.	.	.
=16	=16	=16	=16
2E	0g	2e	2g
1G	.	2g	1b-y
.	.	1.d	.
4F	.	.	4a
4E	.	.	4g
1D	[1f	.	1a
.	.	4c	.
.	.	4B-y	.
=17	=17	=17	=17
2r	2f]	1A	2r
2F	4e	.	2a
.	4d	.	.
2G	2e	1B-y	2g
2D	1d	.	1b-y
1E-X	.	1G	.
.	2c	.	4a
.	.	.	4g
=18	=18	=18	=18
0.D	[0.dl	1A	4f
.	.	.	4g
.	.	.	4a
.	.	.	4b-y
.	.	2F	2a
.	.	2G	1g
.	.	1A	.
.	.	.	2f#i
=19	=19	=19	=19
00GG	00d]	00G	00g
=20||	=20||	=20||	=20||
*M2/1	*M2/1	*M2/1	*M2/1
*met(C|)	*met(C|)	*met(C|)	*met(C|)
!!section: Christe
!!!OMD: Christe
[0G	[0g	[0d	[0b-y
=21	=21	=21	=21
1G]	1g]	1d]	1b-]
1G	1g	1d	1b-y
=22	=22	=22	=22
1d	1.a	1f	2.a
.	.	.	4b-y
2G	.	1e	4cc
.	.	.	4dd
2c	2g	.	[2ee
=23	=23	=23	=23
2d	2f	2f	4ee]
.	.	.	4dd
2B-y	4e	2g	1dd
.	4d	.	.
1A	1e	1a	.
.	.	.	2cc#i
=24	=24	=24	=24
1D	1d	1f	[0dd
1r	1r	1b-y	.
=25	=25	=25	=25
0d	0f	0a	0dd]
=26	=26	=26	=26
1c	2.e	0r	0r
.	4f	.	.
2B-y	2g	.	.
[2c	[2a	.	.
=27	=27	=27	=27
4c]	4a]	0r	0r
4B-y	4g	.	.
4A	1g	.	.
4G	.	.	.
1A	.	.	.
.	2f#i	.	.
=28	=28	=28	=28
0G	0g	0b-y	0dd
=29	=29	=29	=29
0r	0r	1a	1cc
.	.	2g	2b-y
.	.	[2a	[2cc
=30	=30	=30	=30
0r	1r	4a]	4cc]
.	.	4g	4b-y
.	.	1g	4a
.	.	.	4g
.	1d	.	1a
.	.	2f#i	.
=31	=31	=31	=31
2r	0g	0g	0g
2.G	.	.	.
4A	.	.	.
4B-y	.	.	.
4c	.	.	.
=32	=32	=32	=32
1d	1f	0r	0r
2B-y	2g	.	.
[2c	[2a	.	.
=33	=33	=33	=33
2c]	4a]	0r	0r
.	4g	.	.
2.d	4f	.	.
.	4e	.	.
.	2d	.	.
4c	.	.	.
4B-y	[2g	.	.
4A	.	.	.
=34	=34	=34	=34
2G	4g]	0r	0r
.	4f	.	.
2.c	4e	.	.
.	4d	.	.
.	2c	.	.
4B-y	.	.	.
4A	[2f	.	.
4G	.	.	.
=35	=35	=35	=35
2F	4f]	0r	0r
.	4e	.	.
2G	1d	.	.
1E	.	.	.
.	2c#i	.	.
=36	=36	=36	=36
[0D	0d	1r	2r
.	.	.	2.dd
.	.	2r	.
.	.	.	4ee
.	.	[2d	[2ff
=37	=37	=37	=37
1D]	0r	4d]	2ff]
.	.	4e	.
.	.	4f	4ee
.	.	4g	4dd
1r	.	2a	2cc
.	.	[2b-y	[2dd
=38	=38	=38	=38
0r	0r	2b-]	2dd]
.	.	4a	4cc
.	.	4g	4b-y
.	.	2f	2a
.	.	[2g	2g
=39	=39	=39	=39
1r	1d	2g]	1a
.	.	2f#i	.
1G	2.B-y	1g	1g
.	4c	.	.
=40	=40	=40	=40
2F	2d	0r	0r
2.G	2.e-X	.	.
4D	4d	.	.
2F	[2d	.	.
=41	=41	=41	=41
1E	2d]	1r	1r
.	2c#i	.	.
1D	[1d	2r	2r
.	.	[2d	[2dd
=42	=42	=42	=42
2r	1d]	4d]	2dd]
.	.	4e	.
2.D	.	1f	4cc
.	.	.	4b-y
.	2r	.	2.a
4E	.	.	.
4F	[2f	4e	.
4G	.	4d	4b-y
=43	=43	=43	=43
1A	2f]	1c	4cc
.	.	.	4dd
.	2e	.	1cc
2B-y	2d	2d	.
2G	2B-y	2e	[2b-y
=44	=44	=44	=44
1F	1c	1f	2b-]
.	.	.	2a
2G	[1B-y	2r	[1b-y
[2B-y	.	[2d	.
=45	=45	=45	=45
2B-]	1B-]	4d]	1b-]
.	.	4e	.
4A	.	4f	.
4G	.	4g	.
2F	1c	2a	1r
2E	.	4g	.
.	.	4a	.
=46	=46	=46	=46
2D	0r	2b-y	0r
2F	.	2.a	.
1G	.	.	.
.	.	4g	.
.	.	[2g	.
=47	=47	=47	=47
1D	0ryy	2g]	1r
.	.	2f	.
2.G	.	2g	[1dd
.	.	[2b-y	.
4A	.	.	.
=48	=48	=48	=48
2B-y	0ryy	2b-]	2dd]
2c	.	4a	2dd
.	.	4g	.
1d	.	1f	2.ff
.	.	.	4ee
=49	=49	=49	=49
0D	0ryy	2r	2dd
.	.	2.f	4cc
.	.	.	4b-y
.	.	.	2a
.	.	4e	.
.	.	[2d	[2b-y
=50	=50	=50	=50
0E-X	0G	2d]	2b-]
.	.	4c	2.cc
.	.	4B-y	.
.	.	1c	.
.	.	.	4b-y
.	.	.	4a
.	.	.	4g
=51	=51	=51	=51
00D	00A	00d	00f
=52||	=52||	=52||	=52||
*M3/1	*M3/1	*M3/1	*M3/1
*met(O|/3)	*met(O|/3)	*met(O|/3)	*met(O|/3)
!!section: Kyrie II
!!!OMD: Kyrie II
1.D	0d	0.r	0.r
2E	.	.	.
1F	1c	.	.
=53	=53	=53	=53
0G	1B-y	0.r	0.r
.	1G	.	.
1F	1A	.	.
=54	=54	=54	=54
0G	0G	1.d	0dd
.	.	2e	.
1r	1r	1f	1cc
=55	=55	=55	=55
0.r	1r	0g	1b-y
.	1r	.	1g
.	1d	1f	1a
=56	=56	=56	=56
1r	0g	0g	0g
1r	.	.	.
1G	1g	1r	1r
=57	=57	=57	=57
0c	0a	0.r	0.r
1c	1g	.	.
=58	=58	=58	=58
0d	1f	0.r	0.r
.	1d	.	.
1c	1e	.	.
=59	=59	=59	=59
1B-y	0d	0.r	0.r
1G	.	.	.
1A	1c	.	.
=60	=60	=60	=60
0G	0d	0g	1.b-y
.	.	.	2cc
1r	1r	1g	2dd
.	.	.	2ee
=61	=61	=61	=61
0.r	0.r	0a	1ff
.	.	.	1.ee
.	.	1g	.
.	.	.	2dd
=62	=62	=62	=62
0B-y	0.r	1f	0dd
.	.	1d	.
1A	.	1e	1cc
=63	=63	=63	=63
1B-y	0d	0d	0dd
0G	.	.	.
.	1g	1r	1r
=64	=64	=64	=64
1A	1f	1r	0.r
1B-y	1d	1r	.
1c	1e	1g	.
=65	=65	=65	=65
0d	0d	1f	1a
.	.	1d	1b-y
1c	1r	1e	1cc
=66	=66	=66	=66
1B-y	0g	0d	0dd
1G	.	.	.
1A	1f	1r	1r
=67	=67	=67	=67
0G	0g	0d	0b-y
1r	1r	1e	1cc
=68	=68	=68	=68
0.r	0.r	0f	1dd
.	.	.	1.cc
.	.	1e	.
.	.	.	2b-y
=69	=69	=69	=69
0G	1.d	1d	0b-y
.	.	1B-y	.
.	2e	.	.
1F	1f	1c	1a
=70	=70	=70	=70
1B-y	0g	0B-y	0b-y
1G	.	.	.
1A	1f	1r	1r
=71	=71	=71	=71
1B-y	1g	0.r	0.r
1c	1.a	.	.
1d	.	.	.
.	2g	.	.
=72	=72	=72	=72
1G	0g	0.r	0.r
0A	.	.	.
.	1f#i	.	.
=73	=73	=73	=73
0G	0g	0d	0b-y
1r	1r	1e	1cc
=74	=74	=74	=74
0.r	0.r	0f	1dd
.	.	.	1.cc
.	.	1e	.
.	.	.	2b-y
=75	=75	=75	=75
0G	1.d	1d	0b-y
.	.	1B-y	.
.	2e	.	.
1F	1f	1c	1a
=76	=76	=76	=76
1B-y	0g	0B-y	0b-y
1G	.	.	.
1A	1f#i	1r	1r
=77	=77	=77	=77
0G	0g	0b-y	0dd
1r	1r	1g	1ee
=78	=78	=78	=78
1d	1d	0a	1ff
1c	1e	.	1.ee
1d	1f	1a	.
.	.	.	2dd
=79	=79	=79	=79
1G	1g	1b-y	0dd
0A	0e	0a	.
.	.	.	1cc#i
=80	=80	=80	=80
1B-y	0d	1.d	0dd
1G	.	.	.
.	.	2e	.
1A	1r	1f	1cc
=81	=81	=81	=81
1r	0d	0g	0b-y
1G	.	.	.
1A	1c	1r	1a
=82	=82	=82	=82
1D	1B-y	1g	1b-y
0E	1c	1e	1.a
.	1d	1f	.
.	.	.	2g
=83	=83	=83	=83
0.D	1G	1d	0g
.	0A	0d	.
.	.	.	1f#i
=84	=84	=84	=84
00GGl	00Gl	00dl	00gl
==	==	==	==
*-	*-	*-	*-
!!!system-decoration: [*]
!!!RDF**kern: i = editorial accidental
!!!RDF**kern: l = terminal long
!!!ENC: David Burn
!!!END: 2025/2/12
!!!EED: Benjamin Ory
!!!EEV: 2025/2/12
!!!YEC: Copyright 2025 David Burn, All Rights Reserved
!!!ONB: Translated from MusicXML on 2025/2/12
!!!verovio: header encoded
!!!header-left: Edited by @{ENC} (2025)\n
!!!header-right:
!!!header-center: